svg/device/dashboard_4_line.svg

<?xml version="1.0" encoding="UTF-8"?>
<svg width="24px" height="24px" viewBox="0 0 24 24" version="1.1" xmlns="http://www.w3.org/2000/svg" xmlns:xlink="http://www.w3.org/1999/xlink">
    <title>dashboard_4_line</title>
    <g id="页面-1" stroke="none" stroke-width="1" fill="none" fill-rule="evenodd">
        <g id="Device" transform="translate(-672.000000, -192.000000)" fill-rule="nonzero">
            <g id="dashboard_4_line" transform="translate(672.000000, 192.000000)">
                 <path d="M24,0 L24,24 L0,24 L0,0 L24,0 Z M12.5934901,23.257841 L12.5819402,23.2595131 L12.5108777,23.2950439 L12.4918791,23.2987469 L12.4918791,23.2987469 L12.4767152,23.2950439 L12.4056548,23.2595131 C12.3958229,23.2563662 12.3870493,23.2590235 12.3821421,23.2649074 L12.3780323,23.275831 L12.360941,23.7031097 L12.3658947,23.7234994 L12.3769048,23.7357139 L12.4804777,23.8096931 L12.4953491,23.8136134 L12.4953491,23.8136134 L12.5071152,23.8096931 L12.6106902,23.7357139 L12.6232938,23.7196733 L12.6232938,23.7196733 L12.6266527,23.7031097 L12.609561,23.275831 C12.6075724,23.2657013 12.6010112,23.2592993 12.5934901,23.257841 L12.5934901,23.257841 Z M12.8583906,23.1452862 L12.8445485,23.1473072 L12.6598443,23.2396597 L12.6498822,23.2499052 L12.6498822,23.2499052 L12.6471943,23.2611114 L12.6650943,23.6906389 L12.6699349,23.7034178 L12.6699349,23.7034178 L12.678386,23.7104931 L12.8793402,23.8032389 C12.8914285,23.8068999 12.9022333,23.8029875 12.9078286,23.7952264 L12.9118235,23.7811639 L12.8776777,23.1665331 C12.8752882,23.1545897 12.8674102,23.1470016 12.8583906,23.1452862 L12.8583906,23.1452862 Z M12.1430473,23.1473072 C12.1332178,23.1423925 12.1221763,23.1452606 12.1156365,23.1525954 L12.1099173,23.1665331 L12.0757714,23.7811639 C12.0751323,23.7926639 12.0828099,23.8018602 12.0926481,23.8045676 L12.108256,23.8032389 L12.3092106,23.7104931 L12.3186497,23.7024347 L12.3186497,23.7024347 L12.3225043,23.6906389 L12.340401,23.2611114 L12.337245,23.2485176 L12.337245,23.2485176 L12.3277531,23.2396597 L12.1430473,23.1473072 Z" id="MingCute" fill-rule="nonzero"></path>
                <path d="M12,2 C17.5228,2 22,6.47715 22,12 C22,17.5228 17.5228,22 12,22 C6.47715,22 2,17.5228 2,12 C2,6.47715 6.47715,2 12,2 Z M12,4 C7.58172,4 4,7.58172 4,12 C4,16.4183 7.58172,20 12,20 C16.4183,20 20,16.4183 20,12 C20,7.58172 16.4183,4 12,4 Z M12,6 C15.3137,6 18,8.68629 18,12 C18,13.3496 17.5532,14.5977 16.7999,15.6006 C16.4682,16.0422 15.8414,16.1313 15.3998,15.7996 C14.9582,15.4679 14.8691,14.841 15.2008,14.3994 C15.7029,13.731 16,12.9016 16,12 C16,9.79086 14.2091,8 12,8 C11.7247,8 11.4569,8.02766 11.1989,8.08003 C10.6577,8.1899 10.1299,7.8402 10.02,7.29895 C9.91012,6.7577 10.2598,6.22987 10.8011,6.12 C11.1893,6.0412 11.5903,6 12,6 Z M6.12,10.8011 C6.22987,10.2598 6.7577,9.91012 7.29895,10.02 C7.8402,10.1299 8.1899,10.6577 8.08003,11.1989 C8.02766,11.4569 8,11.7247 8,12 C8,12.9016 8.29712,13.731 8.7992,14.3994 C9.13089,14.841 9.0418,15.4679 8.60021,15.7996 C8.15862,16.1313 7.53176,16.0422 7.20007,15.6006 C6.44677,14.5977 6,13.3496 6,12 C6,11.5903 6.0412,11.1893 6.12,10.8011 Z M8.70711,7.29289 L11.482,10.0677 C11.6472,10.0236 11.8208,10 12,10 C13.1046,10 14,10.8954 14,12 C14,13.1046 13.1046,14 12,14 C10.8954,14 10,13.1046 10,12 C10,11.8208 10.0236,11.6472 10.0677,11.482 L7.29289,8.70711 C6.90237,8.31658 6.90237,7.68342 7.29289,7.29289 C7.68342,6.90237 8.31658,6.90237 8.70711,7.29289 Z" id="形状" fill="#09244B"></path>
            </g>
        </g>
    </g>
</svg>

<svg xmlns="http://www.w3.org/2000/svg" width="24" height="24"><g fill="none" fill-rule="nonzero"><path d="M24 0v24H0V0h24ZM12.593 23.258l-.011.002-.071.035-.02.004-.014-.004-.071-.035c-.01-.004-.019-.001-.024.005l-.004.01-.017.428.005.02.01.013.104.074.015.004.012-.004.104-.074.012-.016.004-.017-.017-.427c-.002-.01-.009-.017-.017-.018Zm.265-.113-.013.002-.185.093-.01.01-.003.011.018.43.005.012.008.007.201.093c.012.004.023 0 .029-.008l.004-.014-.034-.614c-.003-.012-.01-.02-.02-.022Zm-.715.002a.023.023 0 0 0-.027.006l-.006.014-.034.614c0 .012.007.02.017.024l.015-.002.201-.093.01-.008.004-.011.017-.43-.003-.012-.01-.01-.184-.092Z"/><path fill="#09244B" d="M12 2c5.523 0 10 4.477 10 10s-4.477 10-10 10S2 17.523 2 12 6.477 2 12 2Zm0 2a8 8 0 1 0 0 16 8 8 0 0 0 0-16Zm0 2a6 6 0 0 1 4.8 9.6 1 1 0 1 1-1.6-1.2 4 4 0 0 0-4.002-6.32 1 1 0 0 1-.397-1.96C11.19 6.041 11.591 6 12 6Zm-5.88 4.801a1 1 0 1 1 1.96.398c-.052.258-.08.526-.08.801 0 .902.297 1.731.8 2.4a1 1 0 0 1-1.6 1.2A5.978 5.978 0 0 1 6 12c0-.41.041-.81.12-1.199Zm2.587-3.508 2.775 2.775a2 2 0 1 1-1.414 1.414L7.293 8.707a1 1 0 0 1 1.414-1.414Z"/></g></svg>
